!!!!SEGMENT: pl-wn--sd-xvi-o-242_anonim--kancjonal-zamoyskich-modlitwa-ludu-pospolitego-stworzycielu-panie-nieba-morza-ziemi.krn
!!!cenid: 15xx:800
!!!COM: Anonim
!!!COM-rismid: pe30004985
!!!CDT:
!!!CNT:
!!!GTL: Kancjonał Zamoyskich
!!!OTL: Modlitwa ludu pospolitego/Stworzycielu panie nieba, morza, ziemi
!!!PDT: 1558
!!!AGN:
!!!SMS-siglum: PL-Wn
!!!SMS-shelfmark: SD XVI.O.242
!!!SMS-variant:
!!!SMS-altvar:
!!!SMS-shelfwork: G
!!!NIFC-rismid: 990071849
!!!URL-scan: https://polona.pl/item/modlithwa-ludu-pospolitego-za-pany-krzescianskimi,MTE3MDY0NQ/3/#info:metadata
!!!ONB-nifc: UWAGA: proszę zapisywać tylko teksty występujące bezpośrednio pod nutami
!!!AIN: 1 alto 1 bass 1 soprn 1 tenor
!!!key: d:dor
!!!finalis: d
**kern	**blank	**text	**kern	**text	**kern	**text	**kern	**text
*part4	*	*part4	*part3	*part3	*part2	*part2	*part1	*part1
*staff4	*	*staff4	*staff3	*staff3	*staff2	*staff2	*staff1	*staff1
*ICvox	*	*	*ICvox	*	*ICvox	*	*ICvox	*
*Ibass	*	*	*Itenor	*	*Ialto	*	*Isoprn	*
*I"BAS.	*	*	*I"TENOR.	*	*I"ALT.	*	*I"CANTVS.	*
*I'B	*	*	*I'T	*	*I'A	*	*I'S	*
*clefF4	*	*	*clefC4	*	*clefC3	*	*clefC1	*
*k[]	*	*	*k[]	*	*k[]	*	*k[]	*
*d:dor	*	*	*d:dor	*	*d:dor	*	*d:dor	*
*M2/1	*	*	*M2/1	*	*M2/1	*	*M2/1	*
*met(C|)	*	*	*met(C|)	*	*met(C|)	*	*met(C|)	*
=1-	=1-	=1-	=1-	=1-	=1-	=1-	=1-	=1-
2D/	.	Stwo-	2D/	Stwo-	2A/	Stwo-	2d/	Stwo-
2D/	.	-rzy-	2D/	-rzy-	2A/	-rzy-	2d/	-rzy-
2D/	.	-ćie-	2A/	-ćie-	2d\	-ćie-	2f/	-ćie-
2D/	.	-lu	2A/	-lu	2d\	-lu	2f/	-lu
=2-	=2-	=2-	=2-	=2-	=2-	=2-	=2-	=2-
1F	.	pá-	1A	pá-	1c	pá-	1f	pá-
1C	.	-nie	1G	-nie	1c	-nie	1e	-nie
=3-	=3-	=3-	=3-	=3-	=3-	=3-	=3-	=3-
2AA/	.	nie-	2c\	nie-	2e\	nie-	2e/	nie-
2AA/	.	-bá	2c\	-bá	2e\	-bá	2a\	-bá
2E\	.	mo-	2B\	mo-	2e\	mo-	2g/	mo-
2F\	.	-rzá	2A/	-rzá	2d\	-rzá	1a\	-rzá
=4-	=4-	=4-	=4-	=4-	=4-	=4-	=4-	=4-
!LO:SIC:v:t=custos AA	!	!	!LO:SIC:v:t=custos A	!	!LO:SIC:v:t=custos c	!	!	!
1E	.	zie-	1B	zie-	1e	zie-	.	.
.	.	.	.	.	.	.	2g/	zie-
!LO:LB:g=original	!	!	!LO:LB:g=original	!	!LO:LB:g=original	!	!	!
1AA	.	-mie/	1A	-[mie]	1c	-mie/	1a	-mie/
=5-	=5-	=5-	=5-	=5-	=5-	=5-	=5-	=5-
!	!	!	!	!	!	!	!LO:SIC:v:t=custos x	!
2AA/	.	kto-	2A/	Kto-	2e\	Kto-	2cc\	kto-
!	!	!	!	!	!	!	!LO:LB:g=original	!
2AA/	.	-rys	2A/	-rys	2e\	-rys	2cc\	-rys
2E\	.	v-	2G/	v-	2e\	u-	2b\	v-
2AA/	.	-mi-	2c\	-mi-	2e\	-mi-	1a\	-mi-
=6-	=6-	=6-	=6-	=6-	=6-	=6-	=6-	=6-
1E	.	-ło-	1B	-ło-	1e	-ło-	.	.
.	.	.	.	.	.	.	2g/	-ło-
1F	.	-wał	1A	-wał	1c	-wał	1a	-wał
=7-	=7-	=7-	=7-	=7-	=7-	=7-	=7-	=7-
1C	.	ludz-	1c	ludz-	1e	ludz-	1g	ludz-
2GG/	.	-kie	2B\	-kie	2d\	-kie	2g/	-kie
1D	.	po-	1A\	po-	2.d\	po-	2.f/	po-
=8-	=8-	=8-	=8-	=8-	=8-	=8-	=8-	=8-
.	.	.	.	.	4c/	-ko-	4e/	-ko-
!	!	!	!	!	!LO:SIC:v:t=custos A	!	!	!
2GG/	.	-ko-	4G/	.	2B/	-le-	1d	-le-
!	!	!	!LO:SIC:v:t=custos E	!	!	!	!	!
.	.	.	4F/	-ko-	.	.	.	.
!LO:SIC:v:t=custos D	!	!	!LO:LB:g=original	!	!LO:LB:g=original	!	!	!
1AA	.	-le-	1E	-le-	1A	.	.	.
.	.	.	.	.	.	.	2c/	.
=9-	=9-	=9-	=9-	=9-	=9-	=9-	=9-	=9-
!LO:LB:g=original	!	!	!	!	!	!	!LO:SIC:v:t=custos d	!
1D	.	-nie/	1D	nie/	1A	nie/	1d	-nie/
!	!	!	!	!	!	!	!LO:LB:g=original	!
2D/	.	ra-	2F/	Ra-	2A/	Ra-	2d/	Rá-
2D/	.	-czyſz	2F/	-czyſz	2A/	-czyſz	2d/	-czyſz
=10-	=10-	=10-	=10-	=10-	=10-	=10-	=10-	=10-
2D/	.	iuſz	2D/	iuſz	2A/	iuſz	2f/	iuſz
2C/	.	wy-	2E/	wy-	2c/	wy-	2e/	wy-
1D	.	-ſlu-	1F	-ſlu-	1A	-ſlu-	1d	-ſly-
=11-	=11-	=11-	=11-	=11-	=11-	=11-	=11-	=11-
1AA	.	-cháć	1E	-cháć	1A	-chać	1c	-cháć
2FF/	.	nas	2A/	nas	2c/	nas	2f/	nas
2FF/	.	ſtwo-	2A/	ſtwo-	2c/	ſtwo-	2f/	ſtwo-
=12-	=12-	=12-	=12-	=12-	=12-	=12-	=12-	=12-
2C/	.	-rze-	2G/	-rze-	2c/	-rze-	2e/	-rze-
2D/	.	-[nie	2F/	-nie	2B/	-nie	1f	-nie
!LO:SIC:v:t=custos FF	!	!	!LO:SIC:v:t=custos F	!	!LO:SIC:v:t=custos A	!	!	!
1C	.	ſwo-	1G	ſwo-	1c	ſwo-	.	.
!	!	!	!	!	!	!	!LO:SIC:v:t=custos f	!
.	.	.	.	.	.	.	2e/	ſwo-
=13-	=13-	=13-	=13-	=13-	=13-	=13-	=13-	=13-
!LO:LB:g=original	!	!	!LO:LB:g=original	!	!LO:LB:g=original	!	!LO:LB:g=original	!
1FF	.	-ie]	1F	-ie/	1A	-ie	1f	-ie/
2F\	.	rácz	2A/	rácz	2c/	rácz	2f/	Rácz
2F\	.	nád	2A/	nád	2c/	nád	2f/	nád
=14-	=14-	=14-	=14-	=14-	=14-	=14-	=14-	=14-
2C/	.	ná-	2G/	ná-	2c/	ná-	2e/	ná-
2AA/	.	-mi	2c\	-mi	2e\	-mi	1a	-mi
1E	.	ziá-	1B	ziá-	1e	zia-	.	.
.	.	.	.	.	.	.	2g\	zia-
=15-	=15-	=15-	=15-	=15-	=15-	=15-	=15-	=15-
1F	.	-wić	1A	-wić	1c	-wić	1a	-wić
1C	.	mi-	1c	mi-	1e	mi-	1g	mi-
=16-	=16-	=16-	=16-	=16-	=16-	=16-	=16-	=16-
2GG/	.	-ło-	2B\	-ło-	2d\	-ło-	2g/	-ło-
1D	.	-ſier.-	1A	-ſier.-	2.d\	-ſier-	2.f/	-ſier-
!	!	!	!	!	!LO:SIC:v:t=custos B	!	!LO:SIC:v:t=custos d	!
.	.	.	.	.	4c/	-dźie	4e/	-dźie
!	!	!	!	!	!LO:LB:g=original	!	!LO:LB:g=original	!
2GG/	.	-[dźie]	4G/	-[dźie	2B/	two-	1d/	two-
.	.	.	4F/	.	.	.	.	.
=17-	=17-	=17-	=17-	=17-	=17-	=17-	=17-	=17-
1AA	.	two-	1E	two-	1A	.	.	.
.	.	.	.	.	.	.	2c/	.
1D	.	-ie.	1D	-ie.]	1A	-ie.	1d	-ie.
!	!	!	!	!	!LO:TX:t=A ij:b:B	!	!	!
==	==	==	==	==	==	==	==	==
*-	*-	*-	*-	*-	*-	*-	*-	*-
!!!system-decoration: [(s1,s2,s3,s4)]
!!!ENC: Arek Malec
!!!END: 2022-04-24
!!!ENC: Krzysztof Stępień
!!!END: 2022-05-06
